src/images/starter.svg

<?xml version="1.0" encoding="UTF-8"?>
<svg width="53px" height="72px" viewBox="0 0 53 72" version="1.1" xmlns="http://www.w3.org/2000/svg" xmlns:xlink="http://www.w3.org/1999/xlink">
    <!-- Generator: Sketch 53 (72520) - https://sketchapp.com -->
    <title>22</title>
    <desc>Created with Sketch.</desc>
    <g id="Marshmello_landing-page" stroke="none" stroke-width="1" fill="none" fill-rule="evenodd">
        <g id="Marshmello_landngpage-Copy" transform="translate(-319.000000, -3554.000000)" fill-rule="nonzero">
            <g id="22" transform="translate(319.000000, 3554.000000)">
                <path d="M29.75,65 L22.25,65 C21.5590625,65 21,65.5217917 21,66.1666667 L21,67.3333333 C21,69.907 23.2425,72 26,72 C28.7575,72 31,69.907 31,67.3333333 L31,66.1666667 C31,65.5217917 30.4409375,65 29.75,65 Z" id="Path" fill="#868491"></path>
                <path d="M26,65 L23.0002501,65 C22.4473618,65 22,65.5218025 22,66.166691 L22,67.3333819 C22,69.9068106 23.7938235,71.9994167 26,72 L26,65 L26,65 Z" id="Path" fill="#5C546A"></path>
                <path d="M44.6435271,6.96445013 C39.258475,2.05943852 32.2049511,-0.397324496 24.8070754,0.0524050902 C11.3253625,0.8654637 0.433849468,11.7647761 0.0130230062,24.866256 C-0.29748413,34.5736872 4.96371076,43.5111904 13.7444666,48.1925934 C15.9272338,49.3572563 17.2830382,51.5937607 17.2830382,54.0309824 L17.2830382,62.5334119 C17.2830382,64.9967352 19.3500133,67 21.8916784,67 L31.1089589,67 C33.650624,67 35.7175991,64.9967352 35.7175991,62.5334119 L35.7175991,54.0309824 C35.7175991,51.595994 37.0834849,49.3539063 39.2843986,48.1783562 C47.7444219,43.6550983 53,35.0359791 53,25.6840603 C53,18.6243387 49.9542649,11.8012067 44.6435271,6.96445013 Z" id="Path" fill="#FFCD00"></path>
                <circle id="Oval" fill="#FFE671" cx="26" cy="26" r="18"></circle>
                <path d="M29.9342656,32 C28.439,32 27.6744219,31.224625 27.1174063,30.659125 C26.6263437,30.161125 26.4307344,30 25.9924063,30 C25.5561875,30 25.3618437,30.161125 24.8728906,30.65825 C24.3477969,31.192375 23.5534062,32 22.0581406,32 C20.564,32 19.76975,31.192375 19.2445156,30.65825 C18.7555625,30.161125 18.5612187,30 18.125,30 C17.5031562,30 17,29.55275 17,29 C17,28.44725 17.5031562,28 18.125,28 C19.6191406,28 20.4133906,28.807625 20.938625,29.34175 C21.4275781,29.838875 21.6219219,30 22.0581406,30 C22.4943594,30 22.6898281,29.838875 23.1787813,29.34175 C23.703875,28.807625 24.4982656,28 25.9924063,28 C27.4876719,28 28.25225,28.775375 28.8092656,29.340875 C29.3003281,29.838875 29.4959375,30 29.9342656,30 C30.3714687,30 30.5670781,29.838875 31.0581406,29.34175 C31.5843594,28.807625 32.37875,28 33.875,28 C34.4968438,28 35,28.44725 35,29 C35,29.55275 34.4968438,30 33.875,30 C33.4366719,30 33.2410625,30.161125 32.75,30.659125 C32.2237813,31.193375 31.4295313,32 29.9342656,32 Z" id="Path" fill="#FFFFFF"></path>
                <path d="M22.8557457,54 C22.3301045,54 21.8570274,53.642315 21.739758,53.118457 L16.026267,27.359538 C15.8922856,26.7547634 16.2840882,26.1586684 16.9000026,26.026374 C17.5204877,25.8929596 18.1252607,26.2790634 18.260242,26.8827181 L23.973733,52.641637 C24.1077144,53.2464116 23.7159118,53.8425066 23.0999974,53.9748011 C23.0175803,53.9924403 22.9360202,54 22.8557457,54 Z" id="Path" fill="#5C546A"></path>
                <path d="M30.1444018,54 C30.0639846,54 29.9825674,53.9923002 29.9000076,53.9748008 C29.2839515,53.842505 28.8922923,53.2464039 29.0262734,52.641623 L34.7397552,26.8824392 C34.8747362,26.2786383 35.4773657,25.8936505 36.0999924,26.0260863 C36.7160485,26.1583821 37.1077077,26.7544832 36.9737266,27.3592641 L31.2602448,53.1184479 C31.1432613,53.6424513 30.6700421,54 30.1444018,54 Z" id="Path" fill="#5C546A"></path>
                <path d="M17,52 C17.1236559,52.5182212 17.1996513,53.051875 17.1996513,53.5989423 L17.1996513,62.3846154 C17.1996513,64.93 19.2850915,67 21.8494624,67 L31.1490846,67 C33.7134554,67 35.7988957,64.93 35.7988957,62.3846154 L35.7988957,53.5989423 C35.7988957,53.0523077 35.8754722,52.5185096 36,52 L17,52 Z" id="Path" fill="#B4B6BC"></path>
                <path d="M26,52 L16,52 C16.130184,52.5182212 16.2101914,53.051875 16.2101914,53.5989423 L16.2101914,62.3846154 C16.2101914,64.93 18.4057275,67 21.1054781,67 L26,67 L26,52 Z" id="Path" fill="#868491"></path>
                <rect id="Rectangle" fill="#868491" x="26" y="55" width="10" height="3"></rect>
                <rect id="Rectangle" fill="#868491" x="26" y="60" width="10" height="3"></rect>
                <rect id="Rectangle" fill="#5C546A" x="17" y="55" width="10" height="3"></rect>
                <rect id="Rectangle" fill="#5C546A" x="17" y="60" width="10" height="3"></rect>
            </g>
        </g>
    </g>
</svg>

<svg width="53" height="72" xmlns="http://www.w3.org/2000/svg"><g fill-rule="nonzero" fill="none"><path d="M29.75 65h-7.5c-.69 0-1.25.522-1.25 1.167v1.166C21 69.907 23.242 72 26 72s5-2.093 5-4.667v-1.166c0-.645-.56-1.167-1.25-1.167z" fill="#868491"/><path d="M26 65h-3c-.553 0-1 .522-1 1.167v1.166C22 69.907 23.794 72 26 72v-7z" fill="#5C546A"/><path d="M44.644 6.964C39.258 2.06 32.205-.397 24.807.052 11.325.865.434 11.765.013 24.866c-.31 9.708 4.95 18.645 13.731 23.327 2.183 1.164 3.539 3.4 3.539 5.838v8.502c0 2.464 2.067 4.467 4.609 4.467h9.217c2.542 0 4.609-2.003 4.609-4.467v-8.502c0-2.435 1.365-4.677 3.566-5.853C47.744 43.655 53 35.036 53 25.684c0-7.06-3.046-13.883-8.356-18.72z" fill="#FFCD00"/><circle fill="#FFE671" cx="26" cy="26" r="18"/><path d="M29.934 32c-1.495 0-2.26-.775-2.817-1.34-.49-.499-.686-.66-1.125-.66-.436 0-.63.161-1.12.658-.524.534-1.319 1.342-2.814 1.342-1.494 0-2.288-.808-2.813-1.342-.49-.497-.684-.658-1.12-.658-.622 0-1.125-.447-1.125-1 0-.553.503-1 1.125-1 1.494 0 2.288.808 2.814 1.342.489.497.683.658 1.12.658.435 0 .63-.161 1.12-.658.525-.534 1.32-1.342 2.813-1.342 1.496 0 2.26.775 2.817 1.34.491.499.687.66 1.125.66.437 0 .633-.161 1.124-.658.526-.534 1.32-1.342 2.817-1.342.622 0 1.125.447 1.125 1 0 .553-.503 1-1.125 1-.438 0-.634.161-1.125.66-.526.533-1.32 1.34-2.816 1.34z" fill="#FFF"/><path d="M22.856 54a1.14 1.14 0 01-1.116-.882L16.026 27.36c-.134-.605.258-1.201.874-1.334a1.141 1.141 0 011.36.857l5.714 25.759c.134.604-.258 1.2-.874 1.333a1.163 1.163 0 01-.244.025zM30.144 54c-.08 0-.161-.008-.244-.025a1.122 1.122 0 01-.874-1.333l5.714-25.76a1.14 1.14 0 011.36-.856c.616.132 1.008.728.874 1.333L31.26 53.12c-.117.523-.59.881-1.116.881z" fill="#5C546A"/><path d="M17 52c.124.518.2 1.052.2 1.599v8.786C17.2 64.93 19.285 67 21.85 67h9.3c2.563 0 4.649-2.07 4.649-4.615v-8.786c0-.547.076-1.08.201-1.599H17z" fill="#B4B6BC"/><path d="M26 52H16c.13.518.21 1.052.21 1.599v8.786c0 2.545 2.196 4.615 4.895 4.615H26V52zM26 55h10v3H26zM26 60h10v3H26z" fill="#868491"/><path fill="#5C546A" d="M17 55h10v3H17zM17 60h10v3H17z"/></g></svg>
